X:1
T: Ferintosh Whisky
C:
R:Strathspey
Q: 128
K:D
M:4/4
L:1/16
|:A,D3 D3G F3D D3F|G3E C3A, CDE2 G4|A,D3 D3G F3D D3A|d3A F3D FGA2 d4|
A,D3 D3G F3D D3F|G3E C3A, CDE2 g4|f3d cde2 d3A FGA2|G3E CDE2 D4-D2g2|
f3d fga2 f4 d3f|g3e c3A cde2 g4|f3d fga2 f4 d3g|f3d a3d b3d a3g|
f3d fga2 f4 d3f|g3e c3A cde2 g4|f3d cde2 d3A FGA2|G3E CDE2 D4-D2:|
